X:1
T:St. Paul’s (Erskine), 87.87 D
T:St. Paul’s (Erskine), 87.87 D
T:John Erskine, 1917
T:Public Domain Courtesy of the Cyber Hymnal™
C:John Erskine, 1917
Z:Public Domain
Z:Courtesy of the Cyber Hymnal™
%%score ( 1 2 ) ( 3 4 )
L:1/8
Q:1/4=110
M:4/4
K:Eb
V:1 treble 
V:2 treble 
V:3 bass 
V:4 bass 
V:1
 [EB]2 [EG]2 [CF]2 [DG]2 | [EB]2 G2 [CF]2 [DG]2 | [EB]2 [Gc]2 [^Fd]2 [Fc]2 | [FB]2 [EA]2 F4 | %4
 E2 E2 [EF]2 [DF]2 | [FG]2 [EG]2 [CA]2 [E=A]2 | [EB]2 B2 [Ec]2 [CG]2 | [DG]2 [DF]2 E4 | %8
 [Gc]2 [Ec]2 [Ge]2 [Gc]2 | [Fc]2 [FB]2 [EB]2 [EG]2 | [EA]2 [EB]2 [Ec]2 [DB]2 | [EB]2 [DG]2 F4 | %12
 E2 [DG]2 F2 [EG]2 | [EA]2 [EB]2 c2 B2 | [Ee]2 [B,e]2 [EF]2 (GA) | [EB]2 [DB]2 [EB]4 |] %16
V:2
 x8 | x2 (ED) x4 | x8 | x4 C2 D2 | E2 E2 x4 | x8 | x2 (B,D) x4 | x4 E4 | x8 | x8 | x8 | x4 C2 D2 | %12
 E2 (CD) x4 | x4 (EA) (GF) | x6 E2 | x8 |] %16
V:3
 [E,G,]2 [E,B,]2 [E,A,]2 (B,A,) | [E,G,]2 [E,B,]2 [E,A,]2 [E,B,]2 | %2
 [E,G,]2 [E,B,]2 [E,=A,]2 [E,A,]2 | [D,B,]2 [B,,B,]2 [A,,C]2 [B,,A,]2 | %4
 [C,G,]2 [F,,A,]2 [C,=A,]2 [B,,B,]2 | [D,B,]2 [C,E]2 [F,E]2 (DC) | %6
 ([G,B,][F,A,]) [E,G,]2 [A,,G,]2 [A,,B,]2 | [B,,A,]2 [B,,A,]2 [E,G,]4 | [C,E]2 [G,C]2 (CD) [B,E]2 | %9
 [A,E]2 [A,D]2 [G,E]2 B,2 | [C,A,]2 [B,,G,]2 [A,,F,]2 F,2 | [G,,B,]2 [G,,B,]2 A,4 | %12
 [E,G,]2 [E,B,]2 [E,A,]2 [_D,B,]2 | [C,A,]2 (G,_D) [A,C]2 [A,=D]2 | %14
 (EB,) ([F,A,][E,G,]) [C,A,]2 ([B,,B,][A,,C]) | [G,,B,]2 [B,,A,]2 [E,G,]4 |] %16
V:4
 x6 E,2 | x8 | x8 | x8 | x8 | x6 ^F,2 | x8 | x8 | x4 C2 x2 | x6 (E,D,) | x6 (B,,A,,) | %11
 x4 A,,2 B,,2 | x8 | x2 E,2 x4 | G,2 x6 | x8 |] %16

